styles/3/Numix/96/actions/grey-add-folders-to-archive.svg

<?xml version="1.0" encoding="UTF-8" standalone="no"?>
<svg
   xmlns:dc="http://purl.org/dc/elements/1.1/"
   xmlns:cc="http://creativecommons.org/ns#"
   xmlns:rdf="http://www.w3.org/1999/02/22-rdf-syntax-ns#"
   xmlns:svg="http://www.w3.org/2000/svg"
   xmlns="http://www.w3.org/2000/svg"
   xmlns:sodipodi="http://sodipodi.sourceforge.net/DTD/sodipodi-0.dtd"
   xmlns:inkscape="http://www.inkscape.org/namespaces/inkscape"
   width="96"
   height="96"
   viewBox="0 0 96 96"
   id="svg2"
   version="1.1"
   inkscape:version="0.91 r"
   sodipodi:docname="grey-add-folders-to-archive.svg">
  <metadata
     id="metadata20">
    <rdf:RDF>
      <cc:Work
         rdf:about="">
        <dc:format>image/svg+xml</dc:format>
        <dc:type
           rdf:resource="http://purl.org/dc/dcmitype/StillImage" />
      </cc:Work>
    </rdf:RDF>
  </metadata>
  <defs
     id="defs18" />
  <sodipodi:namedview
     pagecolor="#ffffff"
     bordercolor="#666666"
     borderopacity="1"
     objecttolerance="10"
     gridtolerance="10"
     guidetolerance="10"
     inkscape:pageopacity="0"
     inkscape:pageshadow="2"
     inkscape:window-width="1280"
     inkscape:window-height="998"
     id="namedview16"
     showgrid="true"
     inkscape:zoom="6.9532168"
     inkscape:cx="34.596216"
     inkscape:cy="35.557312"
     inkscape:window-x="0"
     inkscape:window-y="0"
     inkscape:window-maximized="1"
     inkscape:current-layer="svg2"
     showguides="true"
     inkscape:guide-bbox="true">
    <inkscape:grid
       type="xygrid"
       id="grid2997"
       empspacing="5"
       visible="true"
       enabled="true"
       snapvisiblegridlinesonly="true" />
  </sodipodi:namedview>
  <rect
     style="fill:#757575;fill-opacity:1;stroke:none"
     id="rect3757-2"
     width="64"
     height="26"
     x="6"
     y="40" />
  <path
     style="fill:#757575;fill-opacity:1;stroke:none"
     d="m 14,42 c 0,-3 0,-6 3.636366,-6 l 12.72727,0 C 34,36 34,39 34,42 z"
     id="path3759-6"
     inkscape:connector-curvature="0"
     sodipodi:nodetypes="ccccc" />
  <path
     style="fill:#95989f;fill-opacity:1;stroke:none"
     d="m 12,44 54,0 0,12.13333 -54,0 z"
     id="path3765-1"
     inkscape:connector-curvature="0" />
  <rect
     y="42"
     x="16"
     height="34"
     width="48"
     id="rect3763-1"
     style="fill:#d8d8da;fill-opacity:1;stroke:none" />
  <rect
     style="fill:#f9f9f9;fill-opacity:1;stroke:none"
     id="rect3761-7"
     width="48"
     height="34.666668"
     x="14"
     y="48" />
  <path
     style="fill:#bdbdbd;fill-opacity:1;stroke:none"
     d="M 0,50 76.266668,50 68,92 6,92 z"
     id="path2987-5"
     inkscape:connector-curvature="0"
     sodipodi:nodetypes="ccccc" />
  <path
     style="fill:#000000;fill-opacity:0.10196078;stroke:none"
     d="m 17.567213,36 c -2.795936,0 -3.404724,1.80669 -3.55082,4 l -8.0360652,0 0,10 L 0,50 5.9803278,92 67.77705,92 76,50 l -6.229508,0 0,-10 -35.944262,0 c -0.1461,-2.19331 -0.754886,-4 -3.55082,-4 z"
     id="rect3048"
     inkscape:connector-curvature="0"
     sodipodi:nodetypes="sccccccccccss" />
  <rect
     style="fill:#757575;fill-opacity:1;stroke:none"
     id="rect3757"
     width="64"
     height="26"
     x="26"
     y="8" />
  <path
     style="fill:#757575;fill-opacity:1;stroke:none"
     d="m 34,10 c 0,-3 0,-6 3.636366,-6 l 12.72727,0 C 54,4 54,7 54,10 z"
     id="path3759"
     inkscape:connector-curvature="0"
     sodipodi:nodetypes="ccccc" />
  <path
     style="fill:#95989f;fill-opacity:1;stroke:none"
     d="m 32,12 54,0 0,12.13333 -54,0 z"
     id="path3765"
     inkscape:connector-curvature="0" />
  <rect
     y="10"
     x="36"
     height="34"
     width="48"
     id="rect3763"
     style="fill:#d8d8da;fill-opacity:1;stroke:none" />
  <rect
     style="fill:#f9f9f9;fill-opacity:1;stroke:none"
     id="rect3761"
     width="48"
     height="34.666668"
     x="34"
     y="16" />
  <path
     style="fill:#bdbdbd;fill-opacity:1;stroke:none"
     d="M 20,18 96.266668,18 90,60 26,60 z"
     id="path2987"
     inkscape:connector-curvature="0"
     sodipodi:nodetypes="ccccc" />
  <path
     style="fill:#859900"
     d="m 92,60 -16,0 0,-16 -16,0 0,16 -16,0 0,16 16,0 0,16 16,0 0,-16 16,0 z"
     id="path14"
     inkscape:connector-curvature="0" />
</svg>

<svg xmlns="http://www.w3.org/2000/svg" viewBox="0 0 96 96">
 <rect width="64" height="26" x="6" y="40" style="fill:#757575;fill-opacity:1;stroke:none"/>
 <path d="m 14,42 c 0,-3 0,-6 3.636366,-6 l 12.72727,0 C 34,36 34,39 34,42 z" style="fill:#757575;fill-opacity:1;stroke:none"/>
 <path d="m 12 44 54 0 0 12.133 -54 0 z" style="fill:#95989f;fill-opacity:1;stroke:none"/>
 <rect y="42" x="16" height="34" width="48" style="fill:#d8d8da;fill-opacity:1;stroke:none"/>
 <rect width="48" height="34.667" x="14" y="48" style="fill:#f9f9f9;fill-opacity:1;stroke:none"/>
 <path d="m 0 50 76.27 0 -8.267 42 -62 0 z" style="fill:#bdbdbd;fill-opacity:1;stroke:none"/>
 <path d="m 17.567 36 c -2.796 0 -3.405 1.807 -3.551 4 l -8.04 0 0 10 l -5.98 0 5.98 42 61.797 0 8.223 -42 l -6.23 0 0 -10 -35.944 0 c -0.146 -2.193 -0.755 -4 -3.551 -4 z" style="fill:#000;fill-opacity:0.102;stroke:none"/>
 <rect width="64" height="26" x="26" y="8" style="fill:#757575;fill-opacity:1;stroke:none"/>
 <path d="m 34,10 c 0,-3 0,-6 3.636366,-6 l 12.72727,0 C 54,4 54,7 54,10 z" style="fill:#757575;fill-opacity:1;stroke:none"/>
 <path d="m 32 12 54 0 0 12.133 -54 0 z" style="fill:#95989f;fill-opacity:1;stroke:none"/>
 <rect y="10" x="36" height="34" width="48" style="fill:#d8d8da;fill-opacity:1;stroke:none"/>
 <rect width="48" height="34.667" x="34" y="16" style="fill:#f9f9f9;fill-opacity:1;stroke:none"/>
 <path d="m 20 18 76.27 0 -6.267 42 -64 0 z" style="fill:#bdbdbd;fill-opacity:1;stroke:none"/>
 <path d="m 92 60 -16 0 0 -16 -16 0 0 16 -16 0 0 16 16 0 0 16 16 0 0 -16 16 0 z" style="fill:#859900"/>
</svg>
